src/assets/default-avatar.svg

<svg fill="none" viewBox="0 0 64 64" xmlns="http://www.w3.org/2000/svg" xmlns:xlink="http://www.w3.org/1999/xlink"><linearGradient id="a" gradientUnits="userSpaceOnUse" x1="32" x2="32" y1="0" y2="64"><stop offset="0" stop-color="#fff" stop-opacity=".5"/><stop offset="1" stop-color="#fff" stop-opacity=".2"/></linearGradient><rect fill="#141414" height="62" rx="29" stroke="url(#a)" stroke-width="2" width="62" x="1" y="1"/><path clip-rule="evenodd" d="m50.5445 24.7408v10.3704h-30.9095l-1.3298.0001c1.4075 6.2923 6.9935 10.9924 13.6702 10.9924 5.5198 0 10.2942-3.2124 12.5783-7.8812l5.9908-.0001v8.711c0 2.0618-1.6606 3.7333-3.7091 3.7333h-29.6731c-2.0485 0-3.7092-1.6715-3.7092-3.7333v-22.1926zm-9.5483 13.4816c-1.967 2.8947-5.2735 4.7943-9.0208 4.7943s-7.0538-1.8996-9.0208-4.7943zm-16.9308-10.9927c-2.9067 0-5.3114 2.1634-5.7114 4.9778h3.1617c.3477-1.0832 1.3578-1.8667 2.5497-1.8667s2.202.7835 2.5496 1.8667h3.1617c-.3999-2.8144-2.8046-4.9778-5.7113-4.9778zm15.8669 0c-2.9068 0-5.3115 2.1634-5.7114 4.9778h3.1617c.3476-1.0832 1.3577-1.8667 2.5497-1.8667 1.1919 0 2.202.7835 2.5496 1.8667h3.1617c-.3999-2.8144-2.8046-4.9778-5.7113-4.9778zm6.9031-13.8963c2.0485 0 3.7091 1.6714 3.7091 3.7333v4.563h-37.0914v-4.563c0-2.0619 1.6607-3.7333 3.7092-3.7333z" fill="#23262f" fill-rule="evenodd"/></svg>

<svg xmlns="http://www.w3.org/2000/svg" fill="none" viewBox="0 0 64 64">
    <rect width="62" height="62" x="1" y="1" fill="#141414" stroke="url(#paint0_linear_7357_15711)" stroke-width="2" rx="29"/>
    <path fill="#23262F" fill-rule="evenodd" d="M50.5445 24.7408V35.1112H19.635L18.3052 35.1113C19.7127 41.4036 25.2987 46.1037 31.9754 46.1037C37.4952 46.1037 42.2696 42.8913 44.5537 38.2225L50.5445 38.2224V46.9334C50.5445 48.9952 48.8839 50.6667 46.8354 50.6667H17.1623C15.1138 50.6667 13.4531 48.9952 13.4531 46.9334V24.7408H50.5445ZM40.9962 38.2224C39.0292 41.1171 35.7227 43.0167 31.9754 43.0167C28.2281 43.0167 24.9216 41.1171 22.9546 38.2224H40.9962ZM24.0654 27.2297C21.1587 27.2297 18.754 29.3931 18.354 32.2075L21.5157 32.2075C21.8634 31.1243 22.8735 30.3408 24.0654 30.3408C25.2573 30.3408 26.2674 31.1243 26.615 32.2075L29.7767 32.2075C29.3768 29.3931 26.9721 27.2297 24.0654 27.2297ZM39.9323 27.2297C37.0255 27.2297 34.6208 29.3931 34.2209 32.2075L37.3826 32.2075C37.7302 31.1243 38.7403 30.3408 39.9323 30.3408C41.1242 30.3408 42.1343 31.1243 42.4819 32.2075L45.6436 32.2075C45.2437 29.3931 42.839 27.2297 39.9323 27.2297ZM46.8354 13.3334C48.8839 13.3334 50.5445 15.0048 50.5445 17.0667V21.6297H13.4531V17.0667C13.4531 15.0048 15.1138 13.3334 17.1623 13.3334H46.8354Z" clip-rule="evenodd"/>
    <defs>
        <linearGradient id="paint0_linear_7357_15711" x1="32" x2="32" y1="0" y2="64" gradientUnits="userSpaceOnUse">
            <stop stop-color="white" stop-opacity="0.5"/>
            <stop offset="1" stop-color="white" stop-opacity="0.2"/>
        </linearGradient>
    </defs>
</svg>
